!!!COM: Palestrina, Giovanni Perluigi da
!!!OPR: Missa In semidupl. maj. (I)
!!!OMD: Credo
!!!OTL: Confiteor
**kern	**kern	**kern	**kern	**kern
*Ibass	*Itenor	*Itenor	*Icalto	*Icant
!Bassus	!Tenor 2	!Tenor 1	!Altus	!Cantus
*clefF4	*clefGv2	*clefGv2	*clefG2	*clefG2
*k[b-]	*k[b-]	*k[b-]	*k[b-]	*k[b-]
*F:ion	*F:ion	*F:ion	*F:ion	*F:ion
*M4/2	*M4/2	*M4/2	*M4/2	*M4/2
=160	=160	=160	=160	=160
0r	1F	0r	1r	0r
.	2.A	.	1F	.
.	4B-	.	.	.
=161	=161	=161	=161	=161
0r	1c	0r	2.A	2r
.	.	.	.	2c
.	.	.	4B-	.
.	2r	.	2c	2.e
.	2c	.	2A	.
.	.	.	.	4f
=162	=162	=162	=162	=162
0r	2d	0r	2B-	2g
.	2c	.	2c	2e
.	1B-	.	1d	2.f
.	.	.	.	4g
=163	=163	=163	=163	=163
1FF	0A	1r	[0c	0a
2.AA	.	2r	.	.
.	.	2C	.	.
4BB-	.	.	.	.
=164	=164	=164	=164	=164
2C	2r	2E	1c]	2g
2AA	2c	2F	.	4f
.	.	.	.	4e
2BB-	2B-	2G	1r	2d
2C	2G	2E	.	[2g
=165	=165	=165	=165	=165
1D	4B-	2.F	1r	4g]
.	8A	.	.	4f
.	8G	.	.	.
.	4A	.	.	1f
.	4B-	4G	.	.
[1C	2c	1A	2r	.
.	2C	.	2c	4e
.	.	.	.	4d
=166	=166	=166	=166	=166
1C]	1r	1G	2c	1e
.	.	.	2c	.
1D	2r	1F	4A	1r
.	.	.	8B-	.
.	.	.	8c	.
.	[2A	.	2d	.
=167	=167	=167	=167	=167
2F	2A]	2A	1c	0r
2E	2c	2G	.	.
2D	2B-	2F	1r	.
[2C	2A	[2E	.	.
=168	=168	=168	=168	=168
2C]	1.G	2E]	0r	0r
2BB-	.	2D	.	.
2C	.	2E	.	.
2D	2F	2F	.	.
=169	=169	=169	=169	=169
0C	2G	2E	0r	0r
.	2A	2.F	.	.
.	1G	.	.	.
.	.	8E	.	.
.	.	8D	.	.
.	.	2E	.	.
=170	=170	=170	=170	=170
0FF	1F	0F	2r	2r
.	.	.	1f	1a
.	2.A	.	.	.
.	.	.	2c	2cc
.	4A	.	.	.
=171	=171	=171	=171	=171
0r	2G	0r	2d	2b-
.	2F	.	2f	2a
.	2c	.	2e	2g
.	2A	.	2c	2f
=172	=172	=172	=172	=172
0r	2B-	0r	2d	2g
.	2c	.	2c	2a
.	2B	.	2d	1g
.	2c	.	2e	.
=173	=173	=173	=173	=173
2r	2F	2r	1f	1f
1F	1c	1A	.	.
.	.	.	2.f	2.a
2F	2A	2c	.	.
.	.	.	4f	4a
=174	=174	=174	=174	=174
2BB-	2d	2B-	2f	2b-
2F	2c	2A	2f	2cc
2C	2c	2G	2e	2cc
2FF	2c	2F	2f	2a
=175	=175	=175	=175	=175
2C	2.c	2G	2e	2g
2FF	.	2A	1f	2f
.	4c	.	.	.
1C	1c	1G	.	1g
.	.	.	2e	.
=176	=176	=176	=176	=176
[0FF	[0c	[0F	[0f	[0a
=177	=177	=177	=177	=177
0FF]	0c]	0F]	0f]	0a]
*-	*-	*-	*-	*-
!!!CDT: 1525/^1526/-1594/2/2
!!!OCY: Italia
!!!AGN: Mass (Paraphrase)
!!!AST: renaissance, vocal
!!!ASW: Gregorian Mass
!!!PWK: Masses, Book Mantuan II
!!!RNB: Cadence finals: C
!!!YOR: Le Opere Complete, v. 19, p. 129
!!!YOO: Rome, Italy: Fratelli Scalera
!!!END: 1992//
!!!EED: John Miller
!!!YEC: Copyright 2000, John Miller
!!!YEN: United States of America
!!!YEM: Rights to all derivative electronic formats reserved.
!!!YEM: Refer to licensing agreement for further details.
!!!YEM: This file must be accompanied by the licensing agreement.
!!!YEM: A copy of the licensing agreement may be found at http://www.music-cog.ohio-state.edu/HumdrumDatabases/Palestrina/license.txt
!!!EMD: converted to Humdrum by Bret Aarden
